X: 1
T: Gusta-Eriks valsen
O: e. Kl\"app-Konrad og Kl\"app-Eugen
F: http://www.spillefolk.dk/nodesamling/visnode.php?key=va-gustae 2009-10-8
Z: 2009 John Chambers <jc:trillian.mit.edu>
D: Norrlåtar "Urminnes hävd", MAN 13 (1978)
D: J.P. Nyst\"oms "Klingelikling"
R: waltz
Z: 2009 John Chambers <jc:trillian.mit.edu>
M: 3/4
L: 1/8
K: G
DG \
| "G"B3 B B2 | "D"B2 {cB}A2 A2 | "G"A2 {BA}G2 G2 | "G"D4 G2 \
| "G"B2 {cB}A2 B2 | "G"G2 "(C)"e2 "(D7)"d2 | "G"B>c BA B2 | "G"G4 "G7"AB |
| "C"c2 c2 c2 | "C"E4 c2 | "C"c2 {dc}B2 A2 | "G"G4 G2 \
| "D"G2 {AG}F2 E2 | "D7"D2 d2 F2 | "G"G3 G G2 | "G"G4 :|
|: Bd \
| "G"g3 g g2 | "G"g2 {ag}e2 d2 | "D"f2 {gf}e2 d2 | "D"f2 {gf}e2 d2 \
| "D7"f>g fe c2 | "D7"f2 {gf}e2 d2 | "G"e>d BG Bd | "G"e>d BG Bd |
| "G"g3 g g2 | "G"g2 {ag}f2 g2 | "G"b6 | "D"a6 \
| "D7"g>f ed cA | "D7"F>A FD EF | "G"G3 G G2 | "G"G4 :|
